public/logo.svg

<svg width="171" height="75" viewBox="0 0 171 75" fill="none" xmlns="http://www.w3.org/2000/svg">
<path d="M42.5531 2.62993C39.3188 19.4504 35.9789 36.319 32.5332 53.2357C32.494 53.4287 32.5165 53.6292 32.5975 53.8087C32.6786 53.9882 32.8141 54.1376 32.9848 54.2357C39.1523 57.803 45.5296 60.5979 52.1166 62.6203C58.7324 64.6524 66.096 66.2661 74.2073 67.4617C90.6092 69.8751 107.343 70.1043 124.407 68.1492C130.54 67.4472 136.35 66.2998 141.839 64.7068C145.336 63.694 148.383 62.71 150.98 61.7549C155.379 60.1363 159.581 58.0706 163.584 55.5578C164.125 55.3399 164.355 54.936 164.275 54.3463L167.777 54.5674C161.91 58.8751 155.059 62.3206 147.223 64.904C140.627 67.0802 134.821 68.553 129.806 69.3222C116.703 71.3286 103.535 72.1588 90.3034 71.8126C86.9314 71.7229 83.7324 71.585 80.7062 71.3991C66.0528 70.4985 51.6875 67.9056 37.6104 63.6203C29.4767 61.146 22.1532 57.6379 15.6398 53.0963C10.3913 49.4328 5.8345 44.7726 1.96939 39.1155C1.87268 38.9749 1.8206 38.8219 1.82049 38.678L1.80127 36.8703C1.80106 36.8258 1.81266 36.7822 1.83491 36.7437C1.85716 36.7052 1.88929 36.6732 1.92813 36.6509C1.96696 36.6285 2.01115 36.6166 2.0563 36.6163C2.10145 36.616 2.146 36.6273 2.18554 36.6492L22.1339 47.5722C22.1953 47.6058 22.2631 47.6261 22.3329 47.6319C22.4027 47.6376 22.473 47.6287 22.5394 47.6057C22.6058 47.5826 22.6668 47.5459 22.7186 47.4979C22.7703 47.45 22.8117 47.3918 22.84 47.327C29.363 32.3976 35.902 17.4264 42.457 2.41358C42.6171 2.04499 42.6491 2.1171 42.5531 2.62993Z" fill="#015778"/>
<path d="M151.561 14.452C151.705 14.0866 151.849 14.085 151.993 14.4472C157.312 27.6876 162.62 40.9296 167.916 54.1732C167.977 54.3334 167.931 54.4648 167.777 54.5674L164.275 54.3462L161.749 54.3559C161.618 54.3556 161.492 54.3176 161.387 54.2471C161.282 54.1765 161.204 54.0768 161.163 53.9616L157.848 44.6539C157.805 44.5303 157.724 44.4233 157.616 44.3475C157.509 44.2717 157.38 44.231 157.248 44.2309H147.838C147.774 44.2311 147.71 44.2158 147.653 44.1864C147.595 44.157 147.545 44.1142 147.507 44.0614C147.469 44.0086 147.443 43.9473 147.432 43.8824C147.421 43.8175 147.426 43.7508 147.444 43.6876L148.924 38.8703C148.95 38.7865 149.002 38.7133 149.071 38.6614C149.14 38.6095 149.223 38.5816 149.308 38.5818H155.255C155.313 38.5815 155.37 38.5673 155.421 38.5403C155.472 38.5133 155.516 38.4743 155.549 38.4266C155.582 38.379 155.603 38.3241 155.61 38.2666C155.618 38.209 155.611 38.1506 155.591 38.0962C154.476 35.0193 153.399 31.9809 152.358 28.9809C152.259 28.702 152.124 28.5065 151.955 28.3943C151.593 28.1571 151.327 28.2982 151.157 28.8174C148.365 37.2469 145.533 45.6299 142.66 53.9664C142.623 54.0715 142.556 54.1627 142.466 54.2272C142.377 54.2918 142.27 54.3267 142.161 54.327L136.512 54.2982C136.454 54.2986 136.398 54.2847 136.347 54.2578C136.297 54.2309 136.253 54.1918 136.221 54.1439C136.189 54.096 136.169 54.0407 136.162 53.983C136.156 53.9252 136.164 53.8667 136.185 53.8126L151.561 14.452Z" fill="black"/>
<path d="M94.6168 25.601L98.373 25.7404C98.4958 25.7454 98.6119 25.7982 98.697 25.8878C98.7821 25.9775 98.8295 26.0969 98.8293 26.2212V53.6491C98.8293 53.7332 98.7959 53.8139 98.7365 53.8734C98.677 53.9329 98.5964 53.9664 98.5123 53.9664C97.5196 53.9664 96.5974 53.9664 95.7456 53.9664C95.7296 53.9664 95.4654 53.9904 94.953 54.0385C94.5303 54.077 94.2549 53.9568 94.1268 53.6779C94.0743 53.5644 93.9801 53.4756 93.8638 53.4299C93.7475 53.3842 93.618 53.3852 93.5024 53.4327C90.0344 54.8654 87.2196 54.6539 85.0581 52.7981C83.5498 51.5032 82.5555 49.5834 82.0752 47.0385C81.6621 44.8654 81.6925 42.617 82.1665 40.2933C82.5123 38.5946 83.1816 37.1282 84.1743 35.8943C85.2246 34.5898 86.5055 33.734 88.017 33.327C89.775 32.8526 91.6163 33.0209 93.5408 33.8318C93.604 33.8586 93.6727 33.8695 93.7411 33.8634C93.8094 33.8573 93.8752 33.8345 93.9326 33.797C93.9901 33.7595 94.0374 33.7084 94.0704 33.6482C94.1035 33.588 94.1212 33.5206 94.122 33.452L94.1461 26.0577C94.146 25.9961 94.1583 25.9351 94.1822 25.8784C94.2061 25.8217 94.2411 25.7704 94.2851 25.7278C94.3291 25.6851 94.3811 25.6519 94.4381 25.6301C94.4951 25.6083 94.5559 25.5984 94.6168 25.601ZM93.4448 38.4808C91.7348 37.1987 90.2265 36.9167 88.92 37.6346C87.9241 38.1827 87.2388 39.2693 86.8641 40.8943C86.3742 43.0321 86.4222 45.1683 87.0083 47.3029C87.3253 48.4503 87.788 49.2484 88.3964 49.6971C89.2674 50.335 90.3178 50.3542 91.5474 49.7548C92.3992 49.3414 93.0989 48.8141 93.6465 48.1731C93.9795 47.7853 94.1461 47.3366 94.1461 46.827V39.8895C94.1461 39.3029 93.9123 38.8334 93.4448 38.4808Z" fill="black"/>
<path d="M55.8104 37.7692C56.8703 39.8525 57.2594 42.258 56.9776 44.9856C56.9695 45.0525 56.9383 45.1143 56.8897 45.1594C56.8412 45.2045 56.7785 45.2298 56.7134 45.2307L44.3015 45.3077C44.2479 45.3074 44.1949 45.319 44.1463 45.3416C44.0977 45.3642 44.0548 45.3972 44.0208 45.4382C43.9867 45.4792 43.9623 45.5272 43.9494 45.5786C43.9365 45.6301 43.9353 45.6837 43.9461 45.7356C44.2919 47.5368 45.0428 48.8205 46.1989 49.5865C47.1019 50.1859 48.069 50.367 49.1001 50.1298C50.1889 49.8798 51.0246 49.1843 51.6075 48.0432C51.6724 47.9172 51.7687 47.8114 51.8856 47.7376C52.0025 47.6639 52.1357 47.6249 52.2703 47.625L56.1658 47.6009C56.223 47.6005 56.2794 47.6133 56.3308 47.6384C56.3822 47.6635 56.4272 47.7002 56.4625 47.7456C56.4977 47.7911 56.5222 47.8441 56.534 47.9007C56.5459 47.9573 56.5448 48.0159 56.5309 48.0721C56.0346 50.1266 55.0066 51.7195 53.4471 52.8509C52.0926 53.8285 50.3922 54.3509 48.346 54.4182C43.6707 54.5721 40.6446 52.1779 39.2676 47.2356C38.6111 44.8862 38.6544 42.3702 39.3973 39.6875C40.0858 37.1875 41.4147 35.3766 43.3841 34.2548C45.2222 33.2067 47.2668 32.8269 49.518 33.1154C52.3135 33.4711 54.411 35.0224 55.8104 37.7692ZM50.2433 38.0481C49.1257 37.141 47.8864 36.9872 46.5255 37.5865C45.0973 38.2179 44.2423 39.2965 43.9605 40.8221C43.9542 40.8567 43.9555 40.8922 43.9644 40.9262C43.9733 40.9603 43.9895 40.9919 44.012 41.0189C44.0344 41.046 44.0625 41.0678 44.0943 41.0828C44.1261 41.0978 44.1607 41.1056 44.1958 41.1057L51.7323 41.0769C51.7614 41.0769 51.79 41.0703 51.8162 41.0576C51.8424 41.0449 51.8656 41.0264 51.8839 41.0034C51.9023 40.9804 51.9154 40.9536 51.9224 40.9247C51.9295 40.8958 51.9302 40.8657 51.9245 40.8365C51.7035 39.7083 51.1431 38.7788 50.2433 38.0481Z" fill="black"/>
<path d="M72.1707 33.173C74.1689 33.5191 75.5955 34.4855 76.4505 36.072C76.9436 36.9919 77.2382 38.5512 77.3343 40.7499C77.5008 44.673 77.5408 48.5976 77.4544 52.5239C77.6689 53.5912 77.3199 54.0912 76.4072 54.0239C75.8981 53.9855 75.6339 53.9662 75.6147 53.9662C74.7244 53.9662 73.8871 53.9662 73.1025 53.9662C72.9828 53.9662 72.8679 53.9186 72.7832 53.8339C72.6986 53.7491 72.651 53.6342 72.651 53.5143C72.651 48.9662 72.651 44.5095 72.651 40.1441C72.651 39.1056 72.2875 38.3396 71.5606 37.846C70.9458 37.4326 70.2045 37.3364 69.3367 37.5576C68.0558 37.8909 67.0423 38.6441 66.2961 39.8172C66.2115 39.9459 66.1664 40.0997 66.1664 40.2595V53.6489C66.1664 53.7331 66.133 53.8138 66.0736 53.8733C66.0141 53.9328 65.9335 53.9662 65.8494 53.9662H61.9587C61.8962 53.9662 61.8344 53.9539 61.7767 53.93C61.719 53.9061 61.6666 53.871 61.6224 53.8268C61.5783 53.7826 61.5433 53.7302 61.5194 53.6724C61.4955 53.6147 61.4832 53.5528 61.4832 53.4903V34.0095C61.4832 33.9466 61.4954 33.8843 61.5191 33.8262C61.5428 33.7682 61.5776 33.7155 61.6213 33.6712C61.6651 33.627 61.7171 33.592 61.7741 33.5684C61.8312 33.5447 61.8923 33.5329 61.9539 33.5335L65.7726 33.5576C65.8252 33.5577 65.8774 33.5823 65.9204 33.627C65.9633 33.6718 65.9943 33.7339 66.0079 33.8028L66.0944 34.2499C66.0994 34.2775 66.1122 34.3027 66.1317 34.3233C66.1513 34.344 66.177 34.3594 66.2067 34.3684C66.2364 34.3773 66.2692 34.3796 66.3023 34.3748C66.3355 34.3701 66.3679 34.3586 66.397 34.3412C68.2479 33.2162 70.1725 32.8268 72.1707 33.173Z" fill="black"/>
<path d="M135.95 33.2452C136.081 33.2699 136.199 33.3396 136.284 33.4423C136.369 33.545 136.416 33.6743 136.416 33.8077V38.1443C136.416 38.1767 136.408 38.2088 136.394 38.2377C136.379 38.2667 136.358 38.2916 136.331 38.3105C136.305 38.3294 136.274 38.3416 136.242 38.3461C136.21 38.3507 136.177 38.3474 136.147 38.3366C133.815 37.484 131.989 37.9808 130.666 39.827C130.575 39.9551 130.527 40.108 130.527 40.2645L130.383 53.6923C130.381 53.759 130.356 53.8226 130.311 53.8693C130.266 53.9161 130.205 53.9423 130.142 53.9423L126.261 53.9616C126.211 53.9622 126.161 53.9526 126.115 53.9333C126.068 53.914 126.026 53.8855 125.99 53.8492C125.954 53.813 125.926 53.7699 125.906 53.7223C125.887 53.6747 125.877 53.6237 125.877 53.5721L125.848 34.0914C125.848 34.0205 125.862 33.9503 125.888 33.8849C125.914 33.8195 125.953 33.7603 126.001 33.7106C126.049 33.6609 126.106 33.6218 126.169 33.5955C126.232 33.5693 126.299 33.5564 126.367 33.5577L130.08 33.601C130.141 33.6018 130.201 33.6283 130.249 33.6758C130.296 33.7233 130.328 33.7888 130.339 33.8606C130.365 34.0273 130.419 34.1763 130.503 34.3077C130.518 34.333 130.539 34.3542 130.565 34.3698C130.59 34.3855 130.62 34.3952 130.651 34.3984C130.682 34.4016 130.715 34.3981 130.747 34.3883C130.778 34.3785 130.808 34.3625 130.834 34.3414C132.211 33.2228 133.916 32.8574 135.95 33.2452Z" fill="black"/>
<path d="M104.915 33.553L108.45 33.5386C108.528 33.5386 108.606 33.5543 108.678 33.5848C108.75 33.6153 108.815 33.6599 108.87 33.7163C108.925 33.7726 108.968 33.8394 108.998 33.9129C109.027 33.9863 109.042 34.065 109.041 34.1443C108.99 38.6347 109.02 43.0578 109.133 47.4136C109.152 48.1924 109.294 48.7645 109.56 49.1299C109.819 49.4921 110.162 49.7629 110.588 49.9424C110.953 50.0931 111.368 50.1315 111.832 50.0578C113.135 49.8527 114.266 49.1812 115.223 48.0434C115.415 47.8169 115.521 47.5307 115.521 47.2357V34.0818C115.521 34.0122 115.534 33.9433 115.56 33.879C115.585 33.8148 115.623 33.7566 115.669 33.7078C115.716 33.659 115.772 33.6206 115.833 33.5949C115.894 33.5691 115.96 33.5565 116.025 33.5578L119.878 33.6059C119.941 33.6059 120.002 33.6337 120.048 33.6833C120.093 33.7329 120.118 33.8002 120.118 33.8703V53.6395C120.118 53.7037 120.094 53.7657 120.049 53.8137C120.005 53.8616 119.944 53.8921 119.878 53.8992C118.827 53.9857 117.775 54.0081 116.722 53.9665C115.944 54.1524 115.534 53.92 115.492 53.2693C115.491 53.2462 115.484 53.2238 115.472 53.2041C115.46 53.1845 115.443 53.1683 115.422 53.1572C115.402 53.1461 115.379 53.1404 115.356 53.1407C115.333 53.1409 115.31 53.1472 115.29 53.1588C113.257 54.3863 111.064 54.7229 108.71 54.1684C107.384 53.8607 106.342 53.1427 105.583 52.0145C104.648 50.6171 104.187 48.8639 104.199 46.7549C104.222 42.9088 104.233 38.7421 104.233 34.2549C104.233 34.0688 104.305 33.8902 104.433 33.7586C104.561 33.6269 104.734 33.553 104.915 33.553Z" fill="black"/>
<path d="M53.9179 58.0817L56.358 58.4808C56.4655 58.4982 56.5621 58.555 56.6269 58.6387C56.6917 58.7225 56.7193 58.8264 56.7038 58.9279L56.2571 61.9471C56.246 62.0256 56.2167 62.1003 56.1712 62.1662C56.1258 62.2321 56.0653 62.2877 55.9938 62.3292C55.9223 62.3707 55.8414 62.3971 55.7568 62.4066C55.6721 62.4162 55.5855 62.4087 55.503 62.3846L50.8101 61.024C50.4354 60.915 50.3954 60.7388 50.69 60.4952L53.4808 58.1875C53.5383 58.1406 53.607 58.107 53.6825 58.0887C53.7579 58.0705 53.8382 58.0681 53.9179 58.0817Z" fill="#015778"/>
</svg>

<svg xmlns="http://www.w3.org/2000/svg" width="171" height="75" fill="none">
  <path fill="#015778" d="M42.553 2.63a4701.615 4701.615 0 0 1-10.02 50.606.939.939 0 0 0 .452 1c6.167 3.567 12.545 6.362 19.132 8.384 6.615 2.032 13.979 3.646 22.09 4.842 16.402 2.413 33.136 2.642 50.2.687 6.133-.702 11.943-1.85 17.432-3.442 3.497-1.013 6.544-1.997 9.141-2.952a67.474 67.474 0 0 0 12.604-6.197c.541-.218.771-.622.691-1.212l3.502.221c-5.867 4.308-12.718 7.754-20.554 10.337-6.596 2.176-12.402 3.649-17.417 4.418a222.094 222.094 0 0 1-39.503 2.49c-3.372-.09-6.57-.227-9.597-.413A186.839 186.839 0 0 1 37.61 63.62c-8.133-2.474-15.457-5.982-21.97-10.524-5.249-3.663-9.806-8.323-13.67-13.98a.785.785 0 0 1-.15-.438l-.019-1.808a.25.25 0 0 1 .127-.22.26.26 0 0 1 .258 0l19.948 10.922a.5.5 0 0 0 .585-.074.513.513 0 0 0 .121-.171c6.523-14.93 13.062-29.9 19.617-44.913.16-.369.192-.297.096.216Z"/>
  <path fill="#000" d="M151.561 14.452c.144-.365.288-.367.432-.005 5.319 13.24 10.627 26.483 15.923 39.726.061.16.015.292-.139.394l-3.502-.22-2.526.009a.651.651 0 0 1-.362-.109.578.578 0 0 1-.224-.285l-3.315-9.308a.638.638 0 0 0-.6-.423h-9.41a.402.402 0 0 1-.331-.17.43.43 0 0 1-.063-.373l1.48-4.818a.416.416 0 0 1 .147-.209.393.393 0 0 1 .237-.08h5.947a.359.359 0 0 0 .336-.485 708.01 708.01 0 0 1-3.233-9.115c-.099-.279-.234-.475-.403-.587-.362-.237-.628-.096-.798.423a2205.417 2205.417 0 0 1-8.497 25.15.54.54 0 0 1-.499.36l-5.649-.029a.347.347 0 0 1-.291-.154.37.37 0 0 1-.059-.161.367.367 0 0 1 .023-.17l15.376-39.361ZM94.617 25.601l3.756.14a.473.473 0 0 1 .324.147c.085.09.132.209.132.333V53.65a.318.318 0 0 1-.317.317h-2.766c-.016 0-.28.024-.793.072-.423.039-.698-.081-.826-.36a.485.485 0 0 0-.625-.245c-3.468 1.432-6.282 1.22-8.444-.635-1.508-1.295-2.503-3.215-2.983-5.76-.413-2.173-.383-4.421.091-6.745.346-1.698 1.016-3.165 2.008-4.399 1.05-1.304 2.331-2.16 3.843-2.567 1.758-.474 3.6-.306 5.524.505a.418.418 0 0 0 .581-.38l.024-7.394a.46.46 0 0 1 .292-.428.447.447 0 0 1 .179-.029Zm-1.172 12.88c-1.71-1.282-3.218-1.564-4.525-.846-.996.548-1.681 1.634-2.056 3.26a12.934 12.934 0 0 0 .144 6.408c.317 1.147.78 1.945 1.388 2.394.871.638 1.922.657 3.151.058.852-.414 1.552-.94 2.1-1.582.332-.388.5-.836.5-1.346v-6.938c0-.586-.235-1.056-.702-1.408ZM55.81 37.77c1.06 2.082 1.45 4.488 1.168 7.216a.284.284 0 0 1-.088.173.264.264 0 0 1-.177.072l-12.412.077a.363.363 0 0 0-.352.27.351.351 0 0 0-.003.158c.346 1.8 1.097 3.085 2.253 3.85.903.6 1.87.781 2.901.544 1.089-.25 1.925-.946 2.508-2.087a.787.787 0 0 1 .278-.305.72.72 0 0 1 .384-.113l3.896-.024a.37.37 0 0 1 .297.145.38.38 0 0 1 .068.326c-.496 2.055-1.524 3.647-3.084 4.779-1.354.977-3.055 1.5-5.101 1.567-4.675.154-7.701-2.24-9.078-7.182-.657-2.35-.614-4.866.13-7.548.688-2.5 2.017-4.311 3.986-5.433 1.838-1.048 3.883-1.428 6.134-1.14 2.795.356 4.893 1.907 6.292 4.654Zm-5.567.278c-1.117-.907-2.357-1.06-3.718-.462-1.428.632-2.283 1.71-2.564 3.236a.24.24 0 0 0 .235.284l7.536-.03a.192.192 0 0 0 .152-.073.202.202 0 0 0 .04-.166 4.64 4.64 0 0 0-1.68-2.789ZM72.17 33.173c1.999.346 3.425 1.313 4.28 2.899.494.92.788 2.48.884 4.678.167 3.923.207 7.848.12 11.774.215 1.067-.134 1.567-1.047 1.5-.509-.038-.773-.058-.792-.058h-2.512a.452.452 0 0 1-.452-.452v-13.37c0-1.038-.364-1.804-1.09-2.298-.615-.413-1.357-.51-2.224-.288-1.281.333-2.295 1.086-3.04 2.26a.804.804 0 0 0-.13.442v13.389a.318.318 0 0 1-.318.317h-3.89a.475.475 0 0 1-.476-.476V34.01a.485.485 0 0 1 .138-.339.467.467 0 0 1 .333-.138l3.819.025c.052 0 .104.024.147.069a.354.354 0 0 1 .088.176l.086.447a.143.143 0 0 0 .038.073.17.17 0 0 0 .075.045c.03.01.062.012.095.007a.255.255 0 0 0 .095-.034c1.85-1.125 3.775-1.514 5.774-1.168ZM135.95 33.245a.57.57 0 0 1 .466.563v4.336a.2.2 0 0 1-.174.202.199.199 0 0 1-.095-.01c-2.332-.852-4.158-.355-5.481 1.491a.755.755 0 0 0-.139.438l-.144 13.427a.266.266 0 0 1-.072.177.235.235 0 0 1-.169.073l-3.881.02a.367.367 0 0 1-.271-.113.397.397 0 0 1-.113-.277l-.029-19.48a.56.56 0 0 1 .153-.381.503.503 0 0 1 .366-.153l3.713.043c.061 0 .121.027.169.075a.335.335 0 0 1 .09.185c.026.166.08.315.164.447a.178.178 0 0 0 .062.062.202.202 0 0 0 .086.028.245.245 0 0 0 .183-.057c1.377-1.118 3.082-1.484 5.116-1.096ZM104.915 33.553l3.535-.014a.586.586 0 0 1 .548.374.61.61 0 0 1 .043.231c-.051 4.49-.021 8.914.092 13.27.019.778.161 1.35.427 1.716.259.362.602.633 1.028.812.365.151.78.19 1.244.116 1.303-.205 2.434-.877 3.391-2.015a1.25 1.25 0 0 0 .298-.807V34.082a.54.54 0 0 1 .148-.374.495.495 0 0 1 .356-.15l3.853.048c.063 0 .124.028.17.077.045.05.07.117.07.187v19.77a.254.254 0 0 1-.069.174.272.272 0 0 1-.171.085 25.951 25.951 0 0 1-3.156.068c-.778.185-1.188-.047-1.23-.698a.137.137 0 0 0-.02-.065.13.13 0 0 0-.05-.047.133.133 0 0 0-.132.002c-2.033 1.227-4.226 1.564-6.58 1.01-1.326-.308-2.368-1.026-3.127-2.154-.935-1.398-1.396-3.151-1.384-5.26.023-3.846.034-8.013.034-12.5 0-.186.072-.365.2-.496a.671.671 0 0 1 .482-.206Z"/>
  <path fill="#015778" d="m53.918 58.082 2.44.399a.426.426 0 0 1 .269.158.379.379 0 0 1 .077.289l-.447 3.02a.51.51 0 0 1-.086.218.55.55 0 0 1-.177.163.647.647 0 0 1-.49.055l-4.694-1.36c-.375-.109-.415-.285-.12-.529l2.79-2.307a.507.507 0 0 1 .203-.1.585.585 0 0 1 .235-.006Z"/>
</svg>
